X:1
T:Falter Not
T:Falter Not
T:John Robson Sweney
T:Frances Jane (Fanny) Crosby, 1891
T:Public Domain Courtesy of the Cyber Hymnal™
T:Public Domain Courtesy of the Cyber Hymnal™
C:John Robson Sweney
Z:Public Domain
Z:Courtesy of the Cyber Hymnal™
%%score ( 1 2 ) ( 3 4 )
L:1/8
M:9/8
K:F
V:1 treble 
V:2 treble 
V:3 bass 
V:4 bass 
V:1
 C2 [CF] | [FA]3- [FA]2 [FA] (^GA)[FB] | [FA]3 [CF]3 [CF]2 [FA] | [Fc]3- [Fc]2 [Fc] (=Bc)[Fd] | %4
w: 1.~Fal- ter|not * nor look * be-|hind thee, Cast thy|ev- * ery weight * a-|
w: 2.~Fal- ter|not * nor look * be-|hind thee, Firm and|fear- * less take * thy|
w: 3.~Fal- ter|not * nor look * be-|hind thee, Lest thy|la- * bor prove * in|
w: 4.~Fal- ter|not * nor look * be-|hind thee, Lo, the|prize * is just * in|
w: 5.~Fal- ter|not * nor look * be-|hind thee, What of|all * thy tri- * als|
 [Fc]6 [FA]2 [FA] | [EB]3- [EB]2 [EG] ([EG][FA])[GB] | [FA]3 [CF]3 [CF]2 [CF] | %7
w: side; Haste to|win * the prize * be-|fore thee, Trust- ing|
w: place; Robe and|crown * and palm * are|wait- ing For the|
w: vain; Run with|pa- * tience, and * re-|mem- ber Thou hast|
w: sight; One more|strug- * gle, meet * it|brave- ly, Speed thee|
w: past, If by|grace * through faith * in|Je- sus, Thine the|
 [DF]3- [DF]2 [DF] [CE]2 [=B,D] | C6 ||[M:12/8]"^Refrain" (CF)A | %10
w: Him, * thy pre- cious|guide.||
w: vic- * tors in the|race.||
w: much * to lose or|gain.|Fal- * ter|
w: on * with all thy|might.||
w: vic- * tor’s crown at|last?||
 c3- c3- [Ac]2 c ([^G=B][Ac])[_Bd] | [Ac]6 [FA]3 ([FA][GB])[Ac] | %12
w: ||
w: ||
w: not, * nor look be- * hind|* thee, Still * thy|
w: ||
w: ||
 ([GB]6- [GB][FA])[GB] [Ac]2 [GB] | [FA]6- [FA]3 (CF)A | c3- c3- c2 c | d2 c | [Af]6 [Ac]3 d2 d | %17
w: |||||
w: |||||
w: course * * with joy pur-|sue; * Per- * se-|vere, * * for|thou must|con- quer, With the|
w: |||||
w: |||||
 c3- (z [Fc-]2 z) [Fc]2 F A2 G | F3- (z F3-) z [CF]3 |] %19
w: ||
w: ||
w: cross * of Christ in view.||
w: ||
w: ||
V:2
 C2 x | x6 F2 x | x9 | x6 F2 x | x9 | x9 | x9 | x9 | C6 ||[M:12/8] x3 | A2 A A2 A x6 | x12 | x12 | %13
 x12 | (A2 A A2 A A3) | F3 | x12 | (F2 x4 C3) x4 | C2 D2 x7 |] %19
V:3
 [F,A,]2 [F,A,] | [F,C]3- [F,C]2 [F,C] (=B,C)[F,D] | [F,C]3 [F,A,]3 [F,A,]2 [F,C] | %3
w: ~ ~|~ * ~ ~ * ~|~ ~ ~ ~|
 [F,A,]3- [F,A,]2 [F,A,] (^G,A,)[F,B,] | [F,A,]6 [F,C]2 [F,C] | [G,C]3- [G,C]2 [C,C] [C,C]2 [C,C] | %6
w: ~ * ~ ~ * ~|~ ~ ~|~ * ~ ~ ~|
 [F,C]3 [F,A,]3 [F,A,]2 [F,A,] | [G,=B,]3- [G,B,]2 [G,B,] [G,,G,]2 [G,,F,] | [C,E,]6 || %9
w: ~ ~ ~ ~|~ * ~ ~ ~|~|
[M:12/8] z3 | [F,C]2 [F,C] [F,C]2 [F,C] [F,C]2 z [F,C]3 | [F,F]6 [F,C]3 z3 | %12
w: |Fal- ter not nor look be-|hind thee,|
 [C,C]2 z [C,C]2 z [C,C]2 z [C,C]2 z | [F,C]2 z [F,C]2 z [F,C]3 z3 | %14
w: Still thy course with|joy pur- sue;|
 [F,C]2 [F,C] [F,C]2 [F,C] [F,C]3 | B,2 A, | ([F,C]6 [F,F]3 B,2 B,) | A,7 z z z [C,B,]3 | %18
w: Per- se- vere, for thou|must con-|quer, * * *|With the|
 [F,A,]2 z [F,B,]2 z [F,A,]3 x2 |] %19
w: cross of Christ|
V:4
 x3 | x6 F,2 x | x9 | x6 F,2 x | x9 | x9 | x9 | x9 | x6 ||[M:12/8] x3 | x12 | x12 | x12 | x12 | %14
 x9 | F,3 | x12 | C,2 C,2 C,2 x7 | x11 |] %19

